X:2
T:Mazurka CF 7- (mz06481)
S:Hanny Christen. Bd.IV  Aargau, Basel I. S.163 (mz06481) orig. G,C
S:Basel - Repertoire der 'Dorfmusik Binningen. S.140-201
S:Ãœberliefert durch Jakob LÃ¼scher-MÃ¼ller
%%MIDI program 21
R:Mazurka
M:3/4
L:1/8
K:C%%MIDI gchordon
("C"GE) (Gc) ("G7"ed) | ("C"cE)G2G2 | ("G7"BD)F2F2 | ("C"EC)"F"F2"G7"F2 | ("C"GE) (Gc) ("G7"ed) | ("C"cE)G2G2 | ("G7"Ge)d2d2 | 
(Ge)d2d2 :: "C"ed cB AG | ("Dm"GF) {/G}FEF2 | "G7"dc BA GF | ("C"FE) {/F}EDE2 | ee ee (fe) | "G7"eG dGB2 | 
dd dd (ed) | dG BG "C"cG | ee ee (fe) | "G7"eG dGB2 | dd dd e>d | "C"c2c2z2 :| "F"c3e ce | 
c3e ce | c3G ec | "C7"g2c2C2 |: [K:F] "F"F3A FA | c3d cd | ("C7"cB) .G.C .E.G | ("F"dc) .A.c .F.A | 
F3A FA | c3d cd | ("C7"cB) .G.C .E.G | "F"F2z2z2 :: [K:C] "G7"G3A GF | ("C"EG) .c.e .c.G | 
("G7"FG) .B.d .B.G | ("C"EG) .c.e .c.G | "G7"G3A GF | ("C"CE) .c.e .c.G | ("G7"FG) (Bd) .B.G | "C"c2C2z2 :| 
% mz06481
% Dez 14, 2016

